X:35
T:Editor's thanks to Mr. Nathaniel Gow, The
T:Mile taing an Ughdair
R:Strathspey
S:Simon Fraser Collection
N:No.230
O:Scottish
M:C
L:1/8
K:E_
A,|(G,/A,/B,) B,<G E>C B,2|(G,/A,/B,) B,C
 B,2|1
G<E A>G F>B,DF:|2 G<E A>G Fe gg Be g<b|
g>e gf|g<e a>g f>B d<f|g>e gg Be e<b|
g/a/b a>f g>e f<d|e/d/c/B/ A/G/F/E/ F>BD||
